X: 1
T: the Successful Campaign   [A]
S: Roaring Jelly collection (R-29)
O: Walsh 1764
Z: unknown
M: C|
R: reel
K: A
|:"A"A2Ac "E7"B2Bd | "A"cAce a4 | "A"agfe "D"fedc | "Bm"dcBA "E7"GBGE |
y "A"A2Ac "E7"B2Bd | "A"cAce "#Fm"a4 |"B7"agfe fgab | "B7"g2f2 "E"e2z2 :|
|:"E/g#"e2eg "F#(m)"f2e2 |"Bm"d2c2 d2B2 | "D"d2df "E7"e2d2 | "A"c2B2 c2A2 |
y "A"A2Ac "E7"B2Bd | "A"cAce a4 "I"| "A"agfe "D"fgab | "E"c2B2 "A"A4 :|
